public/assets/trustPilot.svg

<svg width="104" height="26" viewBox="0 0 104 26" fill="none" xmlns="http://www.w3.org/2000/svg">
<path d="M24 10.1717H14.8354L12.0046 1L9.16462 10.1724L0 10.1628L7.42225 15.8372L4.58231 25L12.0046 19.3352L19.4177 25L16.5869 15.8372L24 10.1717Z" fill="#00B67A"/>
<path d="M17.2539 18.0312L16.5977 15.8242L12 19.3398L17.2539 18.0312Z" fill="#005128"/>
<path d="M32.3933 12.2063V4.54921H30V3.31746H36.1692V4.54921H33.7759V12.2063H32.3933ZM36.6933 12.2063V5.80635H37.9364L38.0642 7C38.2036 6.72063 38.3779 6.4836 38.587 6.28889C38.7962 6.08571 39.0402 5.9291 39.319 5.81905C39.6056 5.70899 39.9193 5.65397 40.2601 5.65397V7.26667H39.7721C39.5397 7.26667 39.319 7.30053 39.1099 7.36825C38.9007 7.42751 38.7187 7.5291 38.5638 7.67302C38.4166 7.80847 38.3005 7.99894 38.2153 8.24444C38.1301 8.48148 38.0875 8.78201 38.0875 9.14603V12.2063H36.6933ZM43.4836 12.3587C43.0111 12.3587 42.6045 12.2571 42.2637 12.054C41.9306 11.8423 41.675 11.5291 41.4969 11.1143C41.3188 10.691 41.2297 10.1704 41.2297 9.55238V5.80635H42.6239V9.4C42.6239 9.95026 42.7284 10.3693 42.9375 10.6571C43.1544 10.9365 43.4797 11.0762 43.9135 11.0762C44.1923 11.0762 44.4402 11.0042 44.657 10.8603C44.8816 10.7164 45.0559 10.509 45.1798 10.2381C45.3115 9.95873 45.3773 9.62011 45.3773 9.22222V5.80635H46.7715V12.2063H45.54L45.4354 11.1397C45.2573 11.5122 44.9978 11.8085 44.657 12.0286C44.324 12.2487 43.9328 12.3587 43.4836 12.3587ZM50.658 12.3587C50.139 12.3587 49.6859 12.2698 49.2987 12.0921C48.9191 11.9058 48.6171 11.6519 48.3924 11.3302C48.1756 11 48.0478 10.6233 48.009 10.2H49.4032C49.4419 10.3778 49.5117 10.5429 49.6123 10.6952C49.713 10.8392 49.8486 10.9534 50.019 11.0381C50.1971 11.1228 50.4063 11.1651 50.6464 11.1651C50.8787 11.1651 51.0685 11.1312 51.2156 11.0635C51.3628 10.9873 51.4712 10.8899 51.541 10.7714C51.6107 10.6529 51.6455 10.5259 51.6455 10.3905C51.6455 10.1873 51.5952 10.0307 51.4945 9.92063C51.3938 9.81058 51.2466 9.72593 51.053 9.66667C50.8671 9.59894 50.6425 9.53545 50.3791 9.47619C50.1003 9.41693 49.8292 9.34497 49.5659 9.26032C49.3103 9.1672 49.0779 9.05291 48.8688 8.91746C48.6674 8.78201 48.5048 8.60847 48.3808 8.39682C48.2646 8.18518 48.2066 7.92698 48.2066 7.62222C48.2066 7.24974 48.2956 6.91534 48.4738 6.61905C48.6597 6.32275 48.923 6.08995 49.2638 5.92063C49.6123 5.74286 50.0267 5.65397 50.5069 5.65397C51.1885 5.65397 51.7307 5.82751 52.1335 6.1746C52.544 6.51323 52.7841 6.99153 52.8538 7.60952H51.5293C51.4906 7.37249 51.3822 7.19048 51.204 7.06349C51.0259 6.92804 50.7896 6.86032 50.4953 6.86032C50.1933 6.86032 49.9609 6.92381 49.7982 7.05079C49.6433 7.16931 49.5659 7.33016 49.5659 7.53333C49.5659 7.66032 49.6123 7.77884 49.7053 7.88889C49.806 7.99048 49.9493 8.07936 50.1352 8.15556C50.3211 8.22328 50.5495 8.29101 50.8206 8.35873C51.2544 8.45185 51.6378 8.5619 51.9708 8.68889C52.3039 8.81587 52.5672 9.00212 52.7609 9.24762C52.9545 9.49312 53.0513 9.84021 53.0513 10.2889C53.0591 10.6952 52.9622 11.055 52.7609 11.3683C52.5672 11.6815 52.2923 11.927 51.936 12.1048C51.5797 12.2741 51.1537 12.3587 50.658 12.3587ZM56.7442 12.2063C56.3492 12.2063 56.0045 12.1386 55.7102 12.0032C55.4236 11.8677 55.199 11.6434 55.0364 11.3302C54.8737 11.0169 54.7924 10.5937 54.7924 10.0603V7.08889H53.7932V5.80635H54.7924L54.955 4.11746H56.1866V5.80635H57.7782V7.08889H56.1866V10.0603C56.1866 10.382 56.2485 10.6063 56.3724 10.7333C56.5041 10.8519 56.721 10.9111 57.0231 10.9111H57.7434V12.2063H56.7442ZM59.0899 15V5.80635H60.3331L60.4841 6.73333C60.608 6.54709 60.7552 6.37354 60.9256 6.2127C61.1037 6.04339 61.3167 5.90794 61.5646 5.80635C61.8202 5.70476 62.1106 5.65397 62.4359 5.65397C62.9859 5.65397 63.4699 5.80212 63.8882 6.09841C64.3142 6.39471 64.6473 6.79683 64.8874 7.30476C65.1275 7.80423 65.2475 8.37566 65.2475 9.01905C65.2475 9.66243 65.1236 10.2381 64.8757 10.746C64.6356 11.2455 64.3026 11.6392 63.8766 11.927C63.4583 12.2148 62.9781 12.3587 62.4359 12.3587C61.9944 12.3587 61.6072 12.2698 61.2741 12.0921C60.9488 11.9058 60.6855 11.6434 60.4841 11.3048V15H59.0899ZM62.1455 11.0381C62.4708 11.0381 62.7612 10.9534 63.0168 10.7841C63.2724 10.6148 63.47 10.3778 63.6094 10.073C63.7565 9.76825 63.8301 9.41693 63.8301 9.01905C63.8301 8.6127 63.7565 8.25714 63.6094 7.95238C63.47 7.64762 63.2724 7.41058 63.0168 7.24127C62.7612 7.07196 62.4708 6.9873 62.1455 6.9873C61.8124 6.9873 61.5181 7.07196 61.2625 7.24127C61.0147 7.41058 60.8171 7.64762 60.67 7.95238C60.5306 8.25714 60.4609 8.60847 60.4609 9.00635C60.4609 9.4127 60.5306 9.76825 60.67 10.073C60.8171 10.3693 61.0147 10.6063 61.2625 10.7841C61.5181 10.9534 61.8124 11.0381 62.1455 11.0381ZM66.6589 12.2063V5.80635H68.0531V12.2063H66.6589ZM67.356 4.79048C67.1004 4.79048 66.8874 4.70582 66.717 4.53651C66.5544 4.35873 66.473 4.14286 66.473 3.88889C66.473 3.62645 66.5544 3.41481 66.717 3.25397C66.8874 3.08466 67.1004 3 67.356 3C67.6116 3 67.8207 3.08466 67.9834 3.25397C68.1538 3.41481 68.239 3.62645 68.239 3.88889C68.239 4.14286 68.1538 4.35873 67.9834 4.53651C67.8207 4.70582 67.6116 4.79048 67.356 4.79048ZM69.6642 12.2063V3.06349H71.0584V12.2063H69.6642ZM75.3444 12.3587C74.7868 12.3587 74.2833 12.219 73.8341 11.9397C73.3926 11.6519 73.044 11.2582 72.7885 10.7587C72.5406 10.2508 72.4167 9.6709 72.4167 9.01905C72.4167 8.35026 72.5445 7.76614 72.8001 7.26667C73.0557 6.75873 73.4042 6.36508 73.8457 6.08571C74.2949 5.79788 74.7984 5.65397 75.3561 5.65397C75.9137 5.65397 76.4133 5.79788 76.8548 6.08571C77.304 6.36508 77.6526 6.7545 77.9004 7.25397C78.156 7.75344 78.2838 8.33757 78.2838 9.00635C78.2838 9.67513 78.156 10.2593 77.9004 10.7587C77.6448 11.2582 77.2924 11.6519 76.8432 11.9397C76.4017 12.219 75.9021 12.3587 75.3444 12.3587ZM75.3444 11.0508C75.6233 11.0508 75.875 10.9746 76.0996 10.8222C76.332 10.6698 76.5179 10.4413 76.6573 10.1365C76.7967 9.83175 76.8664 9.45503 76.8664 9.00635C76.8664 8.55767 76.7967 8.18519 76.6573 7.88889C76.5256 7.58413 76.3436 7.35556 76.1112 7.20317C75.8866 7.05079 75.6349 6.9746 75.3561 6.9746C75.085 6.9746 74.8332 7.05079 74.6009 7.20317C74.3685 7.35556 74.1826 7.58413 74.0432 7.88889C73.9038 8.18519 73.8341 8.55767 73.8341 9.00635C73.8341 9.45503 73.9038 9.83175 74.0432 10.1365C74.1826 10.4413 74.3646 10.6698 74.5893 10.8222C74.8216 10.9746 75.0733 11.0508 75.3444 11.0508ZM81.966 12.2063C81.571 12.2063 81.2263 12.1386 80.932 12.0032C80.6454 11.8677 80.4208 11.6434 80.2581 11.3302C80.0955 11.0169 80.0141 10.5937 80.0141 10.0603V7.08889H79.015V5.80635H80.0141L80.1768 4.11746H81.4083V5.80635H83V7.08889H81.4083V10.0603C81.4083 10.382 81.4703 10.6063 81.5942 10.7333C81.7259 10.8519 81.9428 10.9111 82.2448 10.9111H82.9651V12.2063H81.966Z" fill="black"/>
<path d="M32.3064 23.9702V22.7724H29.5064V22.2534L32.1881 18.3806H32.9611V22.1816H33.7814V22.7724H32.9611V23.9702H32.3064ZM30.2399 22.1816H32.338V19.1233L30.2399 22.1816ZM34.2264 24.7288L36.2062 17.8696H36.8608L34.8811 24.7288H34.2264ZM39.3085 24.066C38.9299 24.066 38.6013 23.9969 38.3225 23.8584C38.0492 23.72 37.8309 23.531 37.6679 23.2915C37.5101 23.0519 37.4103 22.7831 37.3682 22.485H38.0149C38.078 22.7831 38.2227 23.0253 38.4487 23.2116C38.6748 23.398 38.9641 23.4911 39.3164 23.4911C39.5793 23.4911 39.8027 23.4299 39.9868 23.3075C40.1761 23.185 40.3207 23.0173 40.4206 22.8044C40.5258 22.5915 40.5783 22.3545 40.5783 22.0937C40.5783 21.8222 40.5258 21.5827 40.4206 21.3751C40.3154 21.1674 40.1709 21.0077 39.9868 20.896C39.8027 20.7789 39.5872 20.7203 39.34 20.7203C39.0403 20.7203 38.7852 20.7869 38.5749 20.9199C38.3646 21.053 38.2069 21.2233 38.1017 21.431H37.4628L37.9203 18.3806H40.8386V18.9636H38.433L38.1254 20.6804C38.2568 20.5259 38.4303 20.4009 38.6459 20.3051C38.8668 20.2039 39.1218 20.1533 39.411 20.1533C39.6844 20.1533 39.9316 20.2012 40.1524 20.2971C40.3733 20.3929 40.5626 20.5286 40.7203 20.7043C40.8781 20.88 40.999 21.0849 41.0831 21.3192C41.1726 21.5534 41.2172 21.8089 41.2172 22.0857C41.2172 22.3572 41.1726 22.6127 41.0831 22.8523C40.999 23.0866 40.8754 23.2968 40.7124 23.4831C40.5495 23.6641 40.3496 23.8078 40.113 23.9143C39.8764 24.0154 39.6082 24.066 39.3085 24.066Z" fill="black" fill-opacity="0.7"/>
<path d="M50 23.4295L52.472 25L51.816 22.04L54 20.0484L51.124 19.7916L50 17L48.876 19.7916L46 20.0484L48.184 22.04L47.528 25L50 23.4295Z" fill="#FFE100"/>
<path d="M60 23.4295L62.472 25L61.816 22.04L64 20.0484L61.124 19.7916L60 17L58.876 19.7916L56 20.0484L58.184 22.04L57.528 25L60 23.4295Z" fill="#FFE100"/>
<path d="M70 23.4295L72.472 25L71.816 22.04L74 20.0484L71.124 19.7916L70 17L68.876 19.7916L66 20.0484L68.184 22.04L67.528 25L70 23.4295Z" fill="#FFE100"/>
<path d="M80 23.4295L82.472 25L81.816 22.04L84 20.0484L81.124 19.7916L80 17L78.876 19.7916L76 20.0484L78.184 22.04L77.528 25L80 23.4295Z" fill="#FFE100"/>
<path d="M90 23.4295L92.472 25L91.816 22.04L94 20.0484L91.124 19.7916L90 17L88.876 19.7916L86 20.0484L88.184 22.04L87.528 25L90 23.4295Z" fill="#AAAAAA"/>
</svg>

<svg xmlns="http://www.w3.org/2000/svg" width="104" height="26" fill="none" viewBox="0 0 104 26"><path fill="#00b67a" d="M24 10.172h-9.165L12.005 1l-2.84 9.172L0 10.162l7.422 5.675L4.582 25l7.423-5.665L19.418 25l-2.831-9.163z"/><path fill="#005128" d="m17.254 18.031-.656-2.207L12 19.34z"/><path fill="#000" d="M32.393 12.206V4.55H30V3.317h6.17V4.55h-2.394v7.657zm4.3 0v-6.4h1.243L38.064 7q.21-.42.523-.711.314-.305.732-.47.43-.165.941-.165v1.613h-.488q-.348 0-.662.101-.314.09-.546.305a1.4 1.4 0 0 0-.349.571q-.128.356-.128.902v3.06zm6.79.153q-.707 0-1.22-.305-.499-.318-.766-.94-.267-.635-.267-1.562V5.806h1.394V9.4q0 .826.313 1.257.326.42.977.42.417 0 .743-.217.337-.216.523-.622.197-.42.197-1.016V5.806h1.395v6.4H45.54l-.105-1.066a2.13 2.13 0 0 1-.778.889q-.5.33-1.173.33m7.175 0q-.778 0-1.36-.267a2.34 2.34 0 0 1-.906-.762 2.4 2.4 0 0 1-.383-1.13h1.394q.058.267.21.495.15.216.406.343.267.127.627.127.349 0 .57-.101a.8.8 0 0 0 .325-.293.74.74 0 0 0 .105-.38q0-.306-.151-.47a.97.97 0 0 0-.442-.254 6 6 0 0 0-.674-.19 8 8 0 0 1-.813-.217 3.5 3.5 0 0 1-.697-.343 1.6 1.6 0 0 1-.488-.52 1.6 1.6 0 0 1-.174-.775q0-.558.267-1.003.279-.444.79-.698.522-.267 1.243-.267 1.022 0 1.627.52.615.51.72 1.436H51.53a.8.8 0 0 0-.325-.547q-.267-.203-.709-.203-.453 0-.697.19a.575.575 0 0 0-.093.839q.151.151.43.267.28.1.686.203.65.14 1.15.33t.79.559.29 1.04q.012.61-.29 1.08a2 2 0 0 1-.825.737q-.534.254-1.278.254m6.086-.153q-.593 0-1.034-.203a1.46 1.46 0 0 1-.674-.673q-.243-.47-.244-1.27V7.09h-.999V5.806h1l.162-1.689h1.232v1.69h1.591v1.282h-1.591v2.971q0 .483.185.673.198.178.651.178h.72v1.295zM59.09 15V5.806h1.243l.151.927q.186-.28.442-.52.266-.254.639-.407.383-.152.87-.152.825 0 1.453.444.64.445 1 1.207.36.749.36 1.714 0 .966-.372 1.727-.36.75-1 1.181a2.5 2.5 0 0 1-1.44.432q-.663 0-1.162-.267a2.16 2.16 0 0 1-.79-.787V15zm3.055-3.962q.489 0 .872-.254t.592-.711q.221-.457.221-1.054 0-.61-.22-1.067a1.66 1.66 0 0 0-.593-.71 1.54 1.54 0 0 0-.872-.255q-.5 0-.883.254a1.77 1.77 0 0 0-.592.711 2.5 2.5 0 0 0-.21 1.054q0 .61.21 1.067.22.444.593.711.383.255.883.254m4.514 1.168v-6.4h1.394v6.4zm.697-7.416a.87.87 0 0 1-.639-.253.93.93 0 0 1-.244-.648q0-.394.244-.635A.87.87 0 0 1 67.356 3q.384 0 .627.254.256.24.256.635 0 .381-.256.648a.83.83 0 0 1-.627.253m2.308 7.416V3.063h1.394v9.143zm5.68.153q-.835 0-1.51-.42a3 3 0 0 1-1.046-1.18q-.37-.762-.371-1.74 0-1.004.383-1.752a2.9 2.9 0 0 1 1.046-1.181 2.74 2.74 0 0 1 1.51-.432q.837 0 1.499.432.674.419 1.045 1.168.384.75.384 1.752 0 1.004-.384 1.753-.383.75-1.057 1.18-.661.42-1.499.42m0-1.308q.42 0 .756-.229.348-.228.557-.685t.21-1.13q0-.675-.21-1.118-.197-.457-.546-.686a1.3 1.3 0 0 0-.755-.228 1.35 1.35 0 0 0-.755.228q-.349.229-.558.686-.21.444-.209 1.117 0 .674.21 1.13.208.458.545.686.349.23.755.229m6.622 1.155q-.593 0-1.034-.203a1.46 1.46 0 0 1-.674-.673q-.243-.47-.244-1.27V7.09h-.999V5.806h1l.162-1.689h1.231v1.69H83v1.282h-1.592v2.971q0 .483.186.673.198.178.65.178h.721v1.295z"/><path fill="#000" fill-opacity=".7" d="M32.306 23.97v-1.198h-2.8v-.519l2.682-3.872h.773v3.8h.82v.591h-.82v1.198zm-2.066-1.788h2.098v-3.059zm3.986 2.547 1.98-6.86h.655l-1.98 6.86zm5.083-.663q-.57 0-.986-.208a1.7 1.7 0 0 1-.655-.567 1.94 1.94 0 0 1-.3-.806h.647q.095.447.434.727t.867.28q.395 0 .67-.184.285-.184.435-.504.157-.319.157-.71 0-.407-.157-.719a1.18 1.18 0 0 0-1.08-.655q-.45 0-.766.2-.315.2-.473.511h-.64l.458-3.05h2.919v.583h-2.406l-.308 1.716q.198-.232.52-.375a1.8 1.8 0 0 1 .766-.152q.41 0 .741.144t.568.407.363.615q.135.351.134.767 0 .407-.134.766a2 2 0 0 1-.37.631 1.8 1.8 0 0 1-.6.431 2 2 0 0 1-.804.152"/><path fill="#ffe100" d="M50 23.43 52.472 25l-.656-2.96L54 20.048l-2.876-.256L50 17l-1.124 2.792-2.876.256 2.184 1.992-.656 2.96zm10 0L62.472 25l-.656-2.96L64 20.048l-2.876-.256L60 17l-1.124 2.792-2.876.256 2.184 1.992-.656 2.96zm10 0L72.472 25l-.656-2.96L74 20.048l-2.876-.256L70 17l-1.124 2.792-2.876.256 2.184 1.992-.656 2.96zm10 0L82.472 25l-.656-2.96L84 20.048l-2.876-.256L80 17l-1.124 2.792-2.876.256 2.184 1.992-.656 2.96z"/><path fill="#aaa" d="M90 23.43 92.472 25l-.656-2.96L94 20.048l-2.876-.256L90 17l-1.124 2.792-2.876.256 2.184 1.992-.656 2.96z"/></svg>
